snx/blue-x.svg

<svg width="360" height="255" viewBox="0 0 360 255" fill="none" xmlns="http://www.w3.org/2000/svg">
<path d="M86.9808 59.2107C84.4637 56.3303 81.3647 54.8882 77.6775 54.8882H2.26C1.59002 54.8882 1.04201 54.676 0.629323 54.2516C0.209775 53.8349 0 53.3622 0 52.8565V2.03167C0 1.52471 0.209775 1.05968 0.629323 0.636574C1.04201 0.212197 1.59002 0 2.26 0H81.953C102.063 0 119.411 8.22071 133.993 24.6494L153.351 48.2811L115.643 94.2765L86.9808 59.2107ZM226.258 24.3966C240.839 8.13178 258.269 0 278.548 0H357.991C358.661 0 359.161 0.171523 359.499 0.505688C359.831 0.847477 360 1.35445 360 2.03167V52.8565C360 53.3622 359.831 53.8349 359.499 54.2516C359.161 54.676 358.661 54.8882 357.991 54.8882H282.574C278.886 54.8882 275.787 56.3303 273.27 59.2107L217.712 126.806L273.52 194.907C276.037 197.622 279.048 198.977 282.574 198.977H357.991C358.661 198.977 359.161 199.189 359.499 199.613C359.831 200.038 360 200.592 360 201.261V252.086C360 252.593 359.831 253.065 359.499 253.481C359.161 253.906 358.661 254.118 357.991 254.118H278.548C258.269 254.118 240.92 245.904 226.508 229.468L180.253 173.056L133.993 229.468C119.411 245.904 101.981 254.118 81.7027 254.118H2.26C1.59002 254.118 1.08267 253.906 0.751049 253.481C0.412691 253.058 0.250304 252.511 0.250304 251.827V201.002C0.250304 200.495 0.412691 200.03 0.751049 199.606C1.08267 199.183 1.59002 198.97 2.26 198.97H77.6775C81.1958 198.97 84.2947 197.533 86.9808 194.648L141.531 128.072L226.258 24.3966Z" fill="#00D1FF"/>
</svg>

<svg width="360" height="255" viewBox="0 0 360 255" fill="none" xmlns="http://www.w3.org/2000/svg"><path d="M86.98 59.21c-2.516-2.88-5.615-4.322-9.303-4.322H2.26c-.67 0-1.218-.212-1.63-.636-.42-.417-.63-.89-.63-1.396V2.032C0 1.525.21 1.06.63.637 1.041.212 1.59 0 2.26 0h79.693c20.11 0 37.458 8.22 52.04 24.65l19.358 23.631-37.708 45.995-28.662-35.065zm139.278-34.813C240.839 8.132 258.269 0 278.548 0h79.443c.67 0 1.17.172 1.508.506.332.341.501.848.501 1.526v50.825c0 .505-.169.978-.501 1.395-.338.424-.838.636-1.508.636h-75.417c-3.688 0-6.787 1.442-9.304 4.323l-55.558 67.595 55.808 68.101c2.517 2.715 5.528 4.07 9.054 4.07h75.417c.67 0 1.17.212 1.508.636.332.425.501.979.501 1.648v50.825c0 .507-.169.979-.501 1.395-.338.425-.838.637-1.508.637h-79.443c-20.279 0-37.628-8.214-52.04-24.65l-46.255-56.412-46.26 56.412c-14.582 16.436-32.012 24.65-52.29 24.65H2.26c-.67 0-1.177-.212-1.509-.637-.338-.423-.5-.97-.5-1.654v-50.825c0-.507.162-.972.5-1.396.332-.423.839-.636 1.509-.636h75.417c3.519 0 6.618-1.437 9.304-4.322l54.55-66.576 84.727-103.675z" fill="#00D1FF"/></svg>
